64x64/apps/wihotspot.svg

<svg xmlns="http://www.w3.org/2000/svg" id="Capa_1" width="64" height="64" version="1.1">
 <path style="opacity:0.2" d="M 60.275,51 H 3.725 C 3.3245508,51 3,51.335742 3,51.749996 v 3.250062 C 3,57.20915 4.731164,59 6.8665156,59 c 0,0 0,0 50.2668544,0 C 59.268836,59 61,57.20915 61,55.000058 V 51.749996 C 61,51.335742 60.67545,51 60.275,51 Z"/>
 <path style="fill:#95a4b3" d="m 55.142712,20 c 2.130182,0 3.857062,1.705378 3.857062,3.808922 L 59,51.999888 H 5 L 5.0001132,23.808922 C 5.0001132,21.705266 6.7269938,20 8.8571754,20 Z"/>
 <path style="opacity:0.2;fill:#f4f4f7" d="M 8.8554688 20 C 6.7252871 20 5 21.704938 5 23.808594 L 5 24.808594 C 5 22.704938 6.7252871 21 8.8554688 21 L 55.144531 21 C 57.274713 21 59 22.70505 59 24.808594 L 59 23.808594 C 59 21.70505 57.274713 20 55.144531 20 L 8.8554688 20 z"/>
 <path style="fill:#1e81e9" d="M 55,52 V 25.891688 C 55,24.84692 54.141894,24 53.083324,24 H 10.916678 C 9.8581078,24 9,24.84692 9,25.891688 V 52 Z"/>
 <circle style="opacity:0.2" cx="32" cy="26" r="19"/>
 <path style="fill:#adc1ce" d="M 60.275,50 H 3.725 C 3.3245508,50 3,50.335742 3,50.749996 v 3.250062 C 3,56.20915 4.731164,58 6.8665156,58 c 0,0 0,0 50.2668544,0 C 59.268836,58 61,56.20915 61,54.000058 V 50.749996 C 61,50.335742 60.67545,50 60.275,50 Z"/>
 <path style="fill:#6a91ac" d="M 52.475554,54 H 45.524446 C 44.132452,54 43,55.06278 43,56.369134 V 58 h 1.333334 v -1.630866 c 0,-0.492116 0.666734,-1.0358 1.191112,-1.0358 h 6.951108 c 0.524378,0 1.191112,0.543684 1.191112,1.0358 V 58 H 55 V 56.369134 C 55,55.06278 53.867548,54 52.475554,54 Z"/>
 <path style="fill:#6a91ac" d="m 37.255468,50 -0.571554,1.847354 c -0.12314,0.39798 -0.563984,0.819314 -1.07178,0.819314 h -7.221408 c -0.507916,0 -0.948646,-0.421234 -1.07178,-0.819314 L 26.747274,50 H 25 l 0.68558,2.205492 C 26.012638,53.262034 27.1826,54 28.530694,54 h 6.941334 c 1.348092,0 2.51817,-0.737966 2.84511,-1.794508 L 39,50 Z"/>
 <path style="fill:#35495e" d="M 7.6999546,55 C 7.3132854,55 7,55.418544 7,55.93486 V 58 H 8.4 V 55.93486 C 8.3999094,55.418544 8.086624,55 7.6999546,55 Z"/>
 <circle style="fill:#1cd678" cx="32" cy="25" r="19"/>
 <path style="opacity:0.2" d="m 32,15.009194 c -5.857212,0 -11.115504,2.558359 -14.722656,6.617187 -0.394112,0.443474 -0.362495,1.117656 0.07031,1.523438 l 1.59375,1.5 c 0.45373,0.425268 1.166448,0.380116 1.578126,-0.08594 2.80636,-3.176242 6.90868,-5.179686 11.480468,-5.179688 4.571664,0 8.674112,2.003318 11.480468,5.179688 0.411808,0.466036 1.124526,0.51119 1.578126,0.08594 l 1.59375,-1.5 c 0.432832,-0.405782 0.46445,-1.079964 0.07032,-1.523438 C 43.115504,17.567553 37.85721,15.009194 32,15.009194 Z m 0,8.019531 c -3.345476,0 -6.337286,1.500974 -8.34375,3.867188 -0.379114,0.447066 -0.345542,1.110808 0.08204,1.511718 l 1.597656,1.5 c 0.464884,0.435786 1.19213,0.378266 1.597656,-0.11328 1.203622,-1.4594 3.026864,-2.390624 5.066406,-2.390624 2.039416,0 3.862656,0.931224 5.066406,2.390624 0.405522,0.491552 1.132772,0.549194 1.597656,0.11328 l 1.601562,-1.5 c 0.427578,-0.40091 0.45722,-1.064524 0.07812,-1.511718 C 38.33728,24.529699 35.345478,23.028725 32,23.028725 Z m 0.03516,7.972656 a 3,3 0 0 0 -3.023438,2.75 A 3,3 0 0 0 31.75,36.989663 3,3 0 0 0 34.988282,34.251381 3,3 0 0 0 32.25,31.013099 3,3 0 0 0 32.035156,31.001381 Z"/>
 <circle style="fill:#f5f5f5" cx="-30.231" cy="34.627" r="3" transform="rotate(-85.241111)"/>
 <path style="fill:#f5f5f5" d="m 18.942482,23.64681 c 0.45373,0.425268 1.164646,0.382574 1.576324,-0.08348 2.80636,-3.176242 6.90955,-5.17976 11.481338,-5.17976 4.571664,0 8.674982,2.00339 11.481338,5.17976 0.411808,0.466036 1.122724,0.508732 1.576324,0.08348 l 1.59607,-1.496452 c 0.432832,-0.405782 0.463858,-1.082976 0.06972,-1.52645 -3.607152,-4.058828 -8.866396,-6.61659 -14.723606,-6.61659 -5.857212,0 -11.116454,2.557762 -14.723606,6.61659 -0.394111,0.443474 -0.363087,1.120668 0.06972,1.52645 z"/>
 <path style="fill:#f5f5f5" d="m 25.334578,28.905972 c 0.464884,0.435786 1.195418,0.378088 1.600944,-0.11346 1.203622,-1.4594 3.02508,-2.389938 5.064622,-2.389938 2.039416,0 3.860876,0.930538 5.064626,2.389938 0.405522,0.491552 1.136058,0.549372 1.600942,0.11346 l 1.59799,-1.498114 c 0.427578,-0.40091 0.460654,-1.065288 0.08156,-1.512482 -2.00647,-2.366214 -4.999626,-3.869078 -8.345104,-3.869078 -3.345476,0 -6.338636,1.502864 -8.3451,3.869078 -0.379114,0.447066 -0.346034,1.111572 0.08154,1.512482 z"/>
 <path style="fill:#35495e" d="M 10.699955,55 C 10.313285,55 10,55.418544 10,55.93486 V 58 h 1.4 V 55.93486 C 11.399909,55.418544 11.086624,55 10.699955,55 Z"/>
 <path style="fill:#35495e" d="M 13.699955,55 C 13.313285,55 13,55.418544 13,55.93486 V 58 h 1.4 V 55.93486 C 14.399909,55.418544 14.086624,55 13.699955,55 Z"/>
 <path style="opacity:0.2;fill:#f4f4f7" d="M 32 6 A 19 19 0 0 0 13 25 A 19 19 0 0 0 13.017578 25.511719 A 19 19 0 0 1 32 7 A 19 19 0 0 1 50.976562 25.517578 A 19 19 0 0 0 51 25 A 19 19 0 0 0 32 6 z"/>
 <path style="opacity:0.2;fill:#f4f4f7" d="M 3.7265625 50 C 3.3261135 50 3 50.335746 3 50.75 L 3 51.75 C 3 51.335746 3.3261135 51 3.7265625 51 L 60.273438 51 C 60.673887 51 61 51.335746 61 51.75 L 61 50.75 C 61 50.335746 60.673887 50 60.273438 50 L 3.7265625 50 z"/>
</svg>

<svg xmlns="http://www.w3.org/2000/svg" width="64" height="64"><path style="opacity:.2" d="M60.275 51H3.725c-.4 0-.725.336-.725.75V55c0 2.21 1.731 4 3.867 4h50.266C59.27 59 61 57.21 61 55v-3.25a.738.738 0 0 0-.725-.75z"/><path style="fill:#95a4b3" d="M55.143 20C57.273 20 59 21.705 59 23.809v28.19H5V23.81C5 21.705 6.727 20 8.857 20z"/><path style="opacity:.2;fill:#f4f4f7" d="M8.855 20C6.725 20 5 21.705 5 23.809v1C5 22.705 6.725 21 8.855 21h46.29C57.275 21 59 22.705 59 24.809v-1C59 21.705 57.275 20 55.145 20H8.855z"/><path style="fill:#1e81e9" d="M55 52V25.892C55 24.847 54.142 24 53.083 24H10.917C9.858 24 9 24.847 9 25.892V52z"/><circle style="opacity:.2" cx="32" cy="26" r="19"/><path style="fill:#adc1ce" d="M60.275 50H3.725c-.4 0-.725.336-.725.75V54c0 2.21 1.731 4 3.867 4h50.266C59.27 58 61 56.21 61 54v-3.25a.738.738 0 0 0-.725-.75z"/><path style="fill:#6a91ac" d="M52.476 54h-6.952C44.132 54 43 55.063 43 56.37V58h1.333v-1.63c0-.493.667-1.037 1.191-1.037h6.952c.524 0 1.19.544 1.19 1.036V58H55v-1.63c0-1.307-1.132-2.37-2.524-2.37zM37.255 50l-.571 1.847c-.123.398-.564.82-1.072.82h-7.221c-.508 0-.949-.422-1.072-.82L26.747 50H25l.686 2.205C26.013 53.262 27.183 54 28.53 54h6.941c1.348 0 2.518-.738 2.845-1.795L39 50z"/><path style="fill:#35495e" d="M7.7 55c-.387 0-.7.419-.7.935V58h1.4v-2.065c0-.516-.313-.935-.7-.935z"/><circle style="fill:#1cd678" cx="32" cy="25" r="19"/><path style="opacity:.2" d="M32 15.01c-5.857 0-11.116 2.558-14.723 6.616a1.092 1.092 0 0 0 .07 1.524l1.594 1.5a1.1 1.1 0 0 0 1.579-.086A15.276 15.276 0 0 1 32 19.384c4.572 0 8.674 2.004 11.48 5.18a1.1 1.1 0 0 0 1.579.086l1.593-1.5c.433-.406.465-1.08.07-1.524C43.117 17.568 37.858 15.01 32 15.01zm0 8.019a10.908 10.908 0 0 0-8.344 3.867c-.379.447-.345 1.11.082 1.512l1.598 1.5a1.094 1.094 0 0 0 1.598-.114A6.552 6.552 0 0 1 32 27.404c2.04 0 3.863.931 5.066 2.39.406.492 1.133.55 1.598.114l1.602-1.5c.427-.401.457-1.065.078-1.512A10.908 10.908 0 0 0 32 23.029zM32.035 31a3 3 0 0 0-3.023 2.75 3 3 0 0 0 2.738 3.239 3 3 0 0 0 3.238-2.739 3 3 0 0 0-2.738-3.238 3 3 0 0 0-.215-.012z"/><circle style="fill:#f5f5f5" cx="-30.231" cy="34.627" r="3" transform="rotate(-85.241)"/><path style="fill:#f5f5f5" d="M18.942 23.647a1.098 1.098 0 0 0 1.577-.084A15.278 15.278 0 0 1 32 18.383c4.572 0 8.675 2.004 11.481 5.18a1.098 1.098 0 0 0 1.577.084l1.596-1.497a1.095 1.095 0 0 0 .07-1.526A19.643 19.643 0 0 0 32 14.007a19.643 19.643 0 0 0-14.724 6.617 1.095 1.095 0 0 0 .07 1.526z"/><path style="fill:#f5f5f5" d="M25.335 28.906a1.098 1.098 0 0 0 1.6-.113A6.548 6.548 0 0 1 32 26.403c2.04 0 3.861.93 5.065 2.39.405.491 1.136.549 1.6.113l1.599-1.498c.427-.401.46-1.065.081-1.513-2.006-2.366-5-3.869-8.345-3.869a10.913 10.913 0 0 0-8.345 3.87 1.098 1.098 0 0 0 .082 1.512z"/><path style="fill:#35495e" d="M10.7 55c-.387 0-.7.419-.7.935V58h1.4v-2.065c0-.516-.313-.935-.7-.935zM13.7 55c-.387 0-.7.419-.7.935V58h1.4v-2.065c0-.516-.313-.935-.7-.935z"/><path style="opacity:.2;fill:#f4f4f7" d="M32 6a19 19 0 0 0-19 19 19 19 0 0 0 .018.512A19 19 0 0 1 32 7a19 19 0 0 1 18.977 18.518A19 19 0 0 0 51 25 19 19 0 0 0 32 6zM3.727 50a.74.74 0 0 0-.727.75v1a.74.74 0 0 1 .727-.75h56.546c.4 0 .727.336.727.75v-1a.74.74 0 0 0-.727-.75H3.727z"/></svg>
